Adwaita++/apps/scalable/calibre-viewer.svg

<svg enable-background="new" height="128" viewBox="0 0 128 128" width="128" xmlns="http://www.w3.org/2000/svg" xmlns:xlink="http://www.w3.org/1999/xlink">
  <linearGradient id="linearGradient1017" gradientUnits="userSpaceOnUse" x1="116" x2="124" y1="227" y2="227">
    <stop offset="0" stop-color="#d5d4cf"/>
    <stop offset=".5" stop-color="#fff"/>
    <stop offset="1" stop-color="#c8c6c0"/>
  </linearGradient>
  <linearGradient id="linearGradient1019" gradientUnits="userSpaceOnUse" x1="40" x2="40" y1="200" y2="312.5165">
    <stop offset="0" stop-color="#edece9"/>
    <stop offset="1" stop-color="#fff"/>
  </linearGradient>
  <linearGradient id="linearGradient1021" gradientTransform="matrix(-.25 0 0 .25 172 197)" gradientUnits="userSpaceOnUse" x1="384" x2="416" y1="120" y2="120">
    <stop offset="0" stop-color="#f6f5f4"/>
    <stop offset=".5" stop-color="#fff"/>
    <stop offset="1" stop-color="#dddbd8"/>
  </linearGradient>
  <radialGradient id="radialGradient1154-9" cx="-172" cy="20.939" gradientTransform="matrix(1.5625 0 0 1.3794803 328.74999 166.82207)" gradientUnits="userSpaceOnUse" r="15.857">
    <stop offset="0" stop-color="#fff"/>
    <stop offset="1" stop-color="#fff" stop-opacity=".200837"/>
  </radialGradient>
  <linearGradient id="linearGradient1419" gradientUnits="userSpaceOnUse" x1="-314.95831" x2="-144.15831" y1="226.810807" y2="226.810807">
    <stop offset="0" stop-color="#949390"/>
    <stop offset=".091" stop-color="#fff"/>
    <stop offset=".336" stop-color="#d5d3cf"/>
    <stop offset=".844" stop-color="#c3c0ba"/>
    <stop offset=".931" stop-color="#fff"/>
    <stop offset="1" stop-color="#68676b"/>
  </linearGradient>
  <g transform="translate(0 -172)">
    <path d="m20 212c-4.432 0-8 3.568-8 8v60c0 4.432 3.568 8 8 8h88c4.432 0 8-3.568 8-8v-60c0-4.432-3.568-8-8-8z" fill="#af0b2b"/>
    <path d="m63.75736 207.39645.24264 78.60355h44c4.432 0 8-3.568 8-8v-62.25c0-4.432-3.568-8-8-8z" fill="url(#linearGradient1017)"/>
    <path d="m64 200v86h-44c-4.432 0-8-3.568-8-8v-70c0-4.432 3.568-8 8-8z" fill="url(#linearGradient1019)"/>
    <path d="m71.75736 191.64645c-4.43179-.0432-8.012452 3.56801-8 8l.24264 86.35355c0-4.432 3.568-8 8-8h36c4.432 0 8-3.568 8-8v-70c0-4.432-3.56821-7.95677-8-8z" fill="url(#linearGradient1021)"/>
    <path d="m46.224654 248.61719c-2.164063 2.11147-4.164063 1.49223-5.281295.37504l-10.914015-10.91362v-54.07861h4v52.42138z" fill="#949390"/>
    <path d="m26 185c-1.042772.20855-2 .82751-2 2v8.8457 24.3086.8457s.0019 1.57808.994141 2.75195c-.916096.52464-1.695441 1.29889-2.228516 2.26563-1.020765 1.85117-1.020765 4.11367 0 5.96484.531602.96407 1.307911 1.73713 2.220703 2.26172-.566049.59219-.986328 1.46235-.986328 2.75586v.8457 24.3086 8.8457c0 .88001.905333 2 2 2h8l-.000001-1-1.999999-5h5.154297c2.666773 0 4.845703-2.17893 4.845703-4.8457v-24.3086c0-2.66677-2.17893-4.8457-4.845703-4.8457h-5.154297-3.154297-.845703s-.07682.008-.08594.008c-.04534-.006-.09101-.008-.136716-.008-1.333727 0-2.574414-.73953-3.259766-1.98242-.685352-1.2429-.685352-2.79226 0-4.03516.685352-1.24289 1.926039-1.98242 3.259766-1.98242.0398.00037.07958-.002.11914-.006.036115.00081.066728.006.103516.006h.845703 3.154297 5.154297c2.666773 0 4.845703-2.17893 4.845703-4.8457v-24.3086c0-2.66677-2.17893-4.8457-4.845703-4.8457h-5.154297v-4c0-2 2-2 2-2l.02934-1h-3.02934zm2.845703 8h3.154297 5.154297c1.593368 0 2.845703 1.25234 2.845703 2.8457v24.3086c0 1.59336-1.252335 2.8457-2.845703 2.8457h-5.154297-3.154297c-.0342 0-.06573-.009-.09961-.01-.436241-.0256-.730469-.32635-.730469-.77539v-28.42968c0-.44904.294228-.74984.730469-.77539.03388-.001.06541-.01.09961-.01zm0 42h8.308594c1.593368 0 2.845703 1.25234 2.845703 2.8457v24.3086c0 1.59336-1.252335 2.8457-2.845703 2.8457h-5.154297-3.154297c-.04629 0-.08907-.0116-.134765-.0137-.42462-.034-.710938-.3296-.710938-.77146v-28.42968c0-.45337.300966-.71477.742188-.77539.03518-.001.06798-.01.103515-.01z" opacity=".1"/>
    <path d="m46.195312 207.38281c-2.164062-2.11147-4.164062-1.49223-5.281295-.37504l-10.914017 10.91362v54.07861h4v-52.42139z" fill="#949390"/>
    <g enable-background="new" transform="matrix(0 .25 -.25 0 52.587406 361.875)">
      <path d="m-515.49964 99.241791a20.00036 19.101946 0 0 1 -10.00018 16.542769 20.00036 19.101946 0 0 1 -20.00036 0 20.00036 19.101946 0 0 1 -10.00018-16.54277" fill="none" stroke="#af0b2b" stroke-linecap="round" stroke-width="8"/>
      <rect fill="#fff" fill-opacity=".440945" height="56" rx="9.078" width="128" x="-515.5" y="46.35"/>
      <rect fill="none" height="64" rx="15.38" stroke="#af0b2b" stroke-linecap="round" stroke-width="8" transform="scale(-1 1)" width="128" x="387.5" y="46.35"/>
      <rect fill="#fff" fill-opacity=".440945" height="56" rx="9.078" width="128" x="-683.5" y="46.35"/>
      <rect fill="none" height="64" rx="15.38" stroke="#af0b2b" stroke-linecap="round" stroke-width="8" transform="scale(-1 1)" width="128" x="555.5" y="46.35"/>
      <path d="m26 12c-1.063423 0-2 .827513-2 2l-.000001 34s0 4 4 4h4v-2h-3.199218c-.469055 0-.785156-.316099-.785156-.785156v-28.429688c0-.469057.316101-.785156.785156-.785156h3.199219l-.000001-6c0-2 2-2 2-2zm5.999999 48h-4s-4 0-4 4l.000001 34c0 .88001.905333 2 2 2h7.999998s-2.02022-.000102-2-2l.000001-6h-3.214843c-.469055 0-.785156-.316099-.785156-.785156v-28.429688c0-.469057.318566-.737136.785156-.785156l3.214843-.125z" fill="#af0b2b" transform="matrix(0 -4 4 0 -759.5 210.34962)"/>
      <g enable-background="new" transform="matrix(0 -1.3114754 1.3114754 0 -779.62348 -443.10066)">
        <path d="m-229.85615 189.49202c-43.79618 0-79.3 35.50383-79.3 79.3.0287 6.31966.81255 12.61322 2.33515 18.74677 8.19243-36.08816 40.25635-61.71209 77.2627-61.74464 36.54242.0403 68.32612 25.04657 76.96484 60.55324 1.33109-5.7576 2.01443-11.64593 2.03728-17.55537 0-43.79617-35.5038-79.3-79.29997-79.3zm-85.10215 72.90214v42.7c0 47.16511 38.2349 85.4 85.4 85.4 47.16509 0 85.39999-38.23489 85.39999-85.4v-42.7c0 21.81024-8.18764 39.8757-21.64189 53.00567-14.89923 20.50946-38.70592 32.65965-64.05595 32.69219-26.25567-.0305-50.79408-13.05488-65.53331-34.78311-12.22092-12.93048-19.56884-30.24417-19.56884-50.91475z" fill="url(#linearGradient1419)"/>
        <path d="m-229.08996 211.91663a76.249998 76.249998 0 0 0 -75.57052 66.63496 76.249998 76.249998 0 0 0 75.57052 66.80254 76.249998 76.249998 0 0 0 75.57052-66.63494 76.249998 76.249998 0 0 0 -75.57052-66.80256z" fill="#3d3846"/>
        <g enable-background="new" transform="matrix(3.05 0 0 3.05 -412.08996 -396.10799)">
          <path d="m59.999998 199.35233a24.999999 24.999999 0 0 0 -24.777218 21.84753 24.999999 24.999999 0 0 0 24.777218 21.90247 24.999999 24.999999 0 0 0 24.777218-21.84752 24.999999 24.999999 0 0 0 -24.777218-21.90248z" fill="#fff" opacity=".2"/>
          <path d="m59.999998 199.35233a24.999999 24.999999 0 0 0 -24.777218 21.84753 24.999999 24.999999 0 0 0 24.777218 21.90247 24.999999 24.999999 0 0 0 24.777218-21.84752 24.999999 24.999999 0 0 0 -24.777218-21.90248z" fill="url(#radialGradient1154-9)"/>
        </g>
        <path d="m-229.08996 192.85413a76.249998 76.249998 0 0 0 -76.25 76.25 76.249998 76.249998 0 0 0 .67947 9.44746 76.249998 76.249998 0 0 1 75.57053-66.63496 76.249998 76.249998 0 0 1 75.57052 66.80256 76.249998 76.249998 0 0 0 .67948-9.61506 76.249998 76.249998 0 0 0 -76.25-76.25z" fill="#453637" opacity=".1"/>
        <circle cx="-229.856" cy="268.792" fill="none" r="79.3" stroke="#f6f5f4" stroke-linecap="square" stroke-linejoin="round" stroke-width="12.2"/>
      </g>
    </g>
  </g>
</svg>

<svg xmlns="http://www.w3.org/2000/svg" xmlns:xlink="http://www.w3.org/1999/xlink" width="128" height="128" version="1.0" viewBox="0 0 128 128" style="enable-background:new">
 <title id="title4162">
  Adwaita Icon Template
 </title>
 <defs>
  <linearGradient id="linearGradient983">
   <stop style="stop-color:#edece9" id="stop978" offset="0"/>
   <stop style="stop-color:#ffffff" id="stop980" offset="1"/>
  </linearGradient>
  <linearGradient id="linearGradient5009-8" x1="32" x2="480" y1="208.059" y2="208.059" gradientTransform="translate(-31.999994,-180.11827)" gradientUnits="userSpaceOnUse" xlink:href="#linearGradient5007-2"/>
  <linearGradient id="linearGradient5007-2">
   <stop style="stop-color:#2dc0af" id="stop5003-2" offset="0"/>
   <stop id="stop5011-9" offset=".416" style="stop-color:#2dc0af;stop-opacity:0.94901961"/>
   <stop style="stop-color:#1f8277;stop-opacity:0.94509804" id="stop5017" offset=".439"/>
   <stop style="stop-color:#26a193;stop-opacity:0.92941177" id="stop5013-0" offset=".581"/>
   <stop id="stop5015-7" offset=".604" style="stop-color:#2dc0af;stop-opacity:0.9254902"/>
   <stop style="stop-color:#2dc0af;stop-opacity:0.88796681" id="stop5005-3" offset="1"/>
  </linearGradient>
  <linearGradient id="linearGradient1831">
   <stop id="stop1825" offset="0" style="stop-color:#d5d4cf"/>
   <stop style="stop-color:#ffffff" id="stop1827" offset=".5"/>
   <stop id="stop1829" offset="1" style="stop-color:#c8c6c0"/>
  </linearGradient>
  <linearGradient id="linearGradient1259">
   <stop id="stop1253" offset="0" style="stop-color:#f6f5f4"/>
   <stop style="stop-color:#ffffff" id="stop1255" offset=".5"/>
   <stop id="stop1257" offset="1" style="stop-color:#dddbd8"/>
  </linearGradient>
  <clipPath id="clipPath1341" clipPathUnits="userSpaceOnUse">
   <path d="M 376,-188 496,-68 V 302 H 23.999995 v -490 z" style="fill:#e74747"/>
  </clipPath>
  <clipPath id="clipPath2019-7" clipPathUnits="userSpaceOnUse">
   <path style="fill:#e74747" d="M 280,124 400,4 392,-276 H 87.999995 v 400 z"/>
  </clipPath>
  <linearGradient id="linearGradient1017" x1="384" x2="416" y1="120" y2="120" gradientTransform="matrix(0.25,0,0,0.25,20,197)" gradientUnits="userSpaceOnUse" xlink:href="#linearGradient1831"/>
  <linearGradient id="linearGradient1019" x1="144" x2="144" y1="-84" y2="366.066" gradientTransform="matrix(0.25,0,0,0.25,4.0000001,221)" gradientUnits="userSpaceOnUse" xlink:href="#linearGradient983"/>
  <linearGradient id="linearGradient1021" x1="384" x2="416" y1="120" y2="120" gradientTransform="matrix(-0.25,0,0,0.25,172,197)" gradientUnits="userSpaceOnUse" xlink:href="#linearGradient1259"/>
  <linearGradient id="linearGradient1027" x1="64" x2="64" y1="262.5" y2="232" gradientTransform="matrix(1.675,0,0,1.675,-321.95585,-108.65584)" gradientUnits="userSpaceOnUse" xlink:href="#linearGradient1025"/>
  <linearGradient id="linearGradient1025">
   <stop id="stop1021" offset="0" style="stop-color:#9a9996"/>
   <stop id="stop1023" offset="1" style="stop-color:#77767b"/>
  </linearGradient>
  <radialGradient id="radialGradient1103" cx="-244" cy="-76" r="32" fx="-244" fy="-76" gradientTransform="matrix(1.4795833,0,0,1.4795833,62.537506,309.44917)" gradientUnits="userSpaceOnUse" xlink:href="#linearGradient1069"/>
  <linearGradient id="linearGradient1069">
   <stop id="stop1065" offset="0" style="stop-color:#d5d3cf"/>
   <stop id="stop1067" offset="1" style="stop-color:#949390"/>
  </linearGradient>
  <linearGradient id="linearGradient1099" x1="32" x2="96" y1="236" y2="236" gradientTransform="matrix(1.675,0,0,1.675,179.44416,-180.54414)" gradientUnits="userSpaceOnUse" xlink:href="#linearGradient1036"/>
  <linearGradient id="linearGradient1036">
   <stop id="stop1032" offset="0" style="stop-color:#d5d3cf"/>
   <stop id="stop1034" offset="1" style="stop-color:#f6f5f4"/>
  </linearGradient>
  <radialGradient id="radialGradient1154-9" cx="-172" cy="20.939" r="15.857" fx="-172" fy="20.939" gradientTransform="matrix(1.5625,0,0,1.3794803,328.74999,166.82207)" gradientUnits="userSpaceOnUse" xlink:href="#linearGradient1100"/>
  <linearGradient id="linearGradient1100">
   <stop style="stop-color:#ffffff" id="stop1096" offset="0"/>
   <stop style="stop-color:#ffffff;stop-opacity:0.20083682" id="stop1098" offset="1"/>
  </linearGradient>
  <linearGradient id="linearGradient1419" x1="22" x2="62" y1="37" y2="37" gradientTransform="matrix(4.27,0,0,4.27,-408.89831,68.820807)" gradientUnits="userSpaceOnUse" xlink:href="#linearGradient1368"/>
  <linearGradient id="linearGradient1368">
   <stop style="stop-color:#949390" id="stop1364" offset="0"/>
   <stop id="stop1372" offset=".091" style="stop-color:#ffffff"/>
   <stop style="stop-color:#d5d3cf" id="stop1380" offset=".336"/>
   <stop id="stop1382" offset=".844" style="stop-color:#c3c0ba"/>
   <stop style="stop-color:#ffffff" id="stop1384" offset=".931"/>
   <stop style="stop-color:#68676b" id="stop1366" offset="1"/>
  </linearGradient>
 </defs>
 <g id="layer1" transform="translate(0,-172)">
  <g id="layer2" style="display:none">
   <text style="font-size:8.43604374px;line-height:125%;font-family:Cantarell" id="context" x="7.93" y="135.45" xml:space="preserve">
    <tspan id="tspan2716" x="7.93" y="135.45">apps</tspan>
   </text>
   <text id="text3021" x="7.66" y="147.34" xml:space="preserve" style="font-weight:bold;font-size:8.43604374px;line-height:125%;font-family:Cantarell">
    <tspan id="tspan3023" x="7.66" y="147.34">org.gnome.Books</tspan>
   </text>
   <rect style="fill:#f0f0f0" width="128" height="128" x="0" y="172"/>
   <g style="enable-background:new" transform="matrix(0.25,0,0,0.25,6.9488522e-8,225)">
    <rect width="320" height="448" x="96" y="-180" rx="32" ry="32" style="opacity:0.1;fill:#2864b0"/>
    <rect width="416" height="416" x="48" y="-164" rx="32" ry="32" style="opacity:0.1;fill:#2864b0"/>
    <rect width="448" height="320" x="32" y="-116" rx="32" ry="32" style="opacity:0.1;fill:#2864b0"/>
    <circle cx="256" cy="44" r="240" style="opacity:0.1;fill:#2864b0"/>
   </g>
  </g>
  <g id="layer9">
   <path d="m 20,212 c -4.432,0 -8,3.568 -8,8 v 60 c 0,4.432 3.568,8 8,8 h 88 c 4.432,0 8,-3.568 8,-8 v -60 c 0,-4.432 -3.568,-8 -8,-8 z" style="fill:#af0b2b"/>
   <path d="M 63.75736,207.39645 64,286 h 44 c 4.432,0 8,-3.568 8,-8 v -62.25 c 0,-4.432 -3.568,-8 -8,-8 z" style="fill:url(#linearGradient1017)"/>
   <path d="m 64,200 v 86 H 20 c -4.432,0 -8,-3.568 -8,-8 v -70 c 0,-4.432 3.568,-8 8,-8 z" style="fill:url(#linearGradient1019)"/>
   <path d="m 71.75736,191.64645 c -4.43179,-0.0432 -8.012452,3.56801 -8,8 L 64,286 c 0,-4.432 3.568,-8 8,-8 h 36 c 4.432,0 8,-3.568 8,-8 v -70 c 0,-4.432 -3.56821,-7.95677 -8,-8 z" style="fill:url(#linearGradient1021)"/>
   <path d="m 46.224654,248.61719 c -2.164063,2.11147 -4.164063,1.49223 -5.281295,0.37504 L 30.029344,238.07861 V 184 h 4 v 52.42138 z" style="fill:#949390"/>
   <path style="opacity:0.1" d="m 26,185 c -1.042772,0.20855 -2,0.82751 -2,2 v 8.8457 24.3086 V 221 c 0,0 0.0019,1.57808 0.994141,2.75195 -0.916096,0.52464 -1.695441,1.29889 -2.228516,2.26563 -1.020765,1.85117 -1.020765,4.11367 0,5.96484 0.531602,0.96407 1.307911,1.73713 2.220703,2.26172 C 24.420279,234.83633 24,235.70649 24,237 v 0.8457 24.3086 V 271 c 0,0.88001 0.905333,2 2,2 h 8 l -10e-7,-1 L 32,267 h 5.154297 C 39.82107,267 42,264.82107 42,262.1543 V 237.8457 C 42,235.17893 39.82107,233 37.154297,233 H 32 28.845703 28 c 0,0 -0.07682,0.008 -0.08594,0.008 C 27.86872,233.002 27.82305,233 27.777344,233 c -1.333727,0 -2.574414,-0.73953 -3.259766,-1.98242 -0.685352,-1.2429 -0.685352,-2.79226 0,-4.03516 C 25.20293,225.73953 26.443617,225 27.777344,225 c 0.0398,3.7e-4 0.07958,-0.002 0.11914,-0.006 C 27.932599,224.99481 27.963212,225 28,225 H 28.845703 32 37.154297 C 39.82107,225 42,222.82107 42,220.1543 V 195.8457 C 42,193.17893 39.82107,191 37.154297,191 H 32 v -4 c 0,-2 2,-2 2,-2 l 0.02934,-1 H 31 Z m 2.845703,8 H 32 37.154297 C 38.747665,193 40,194.25234 40,195.8457 v 24.3086 C 40,221.74766 38.747665,223 37.154297,223 H 32 28.845703 c -0.0342,0 -0.06573,-0.009 -0.09961,-0.01 -0.436241,-0.0256 -0.730469,-0.32635 -0.730469,-0.77539 v -28.42968 c 0,-0.44904 0.294228,-0.74984 0.730469,-0.77539 0.03388,-10e-4 0.06541,-0.01 0.09961,-0.01 z m 0,42 h 8.308594 C 38.747665,235 40,236.25234 40,237.8457 v 24.3086 C 40,263.74766 38.747665,265 37.154297,265 H 32 28.845703 c -0.04629,0 -0.08907,-0.0116 -0.134765,-0.0137 C 28.286318,264.9523 28,264.6567 28,264.21484 v -28.42968 c 0,-0.45337 0.300966,-0.71477 0.742188,-0.77539 0.03518,-0.001 0.06798,-0.01 0.103515,-0.01 z"/>
   <path d="m 46.195312,207.38281 c -2.164062,-2.11147 -4.164062,-1.49223 -5.281295,-0.37504 L 30,217.92139 V 272 h 4 v -52.42139 z" style="fill:#949390"/>
   <g transform="matrix(0,0.25,-0.25,0,52.587406,361.875)" style="enable-background:new">
    <path d="m -515.49964,99.241791 a 20.00036,19.101946 0 0 1 -10.00018,16.542769 20.00036,19.101946 0 0 1 -20.00036,0 20.00036,19.101946 0 0 1 -10.00018,-16.54277" style="fill:none;stroke:#af0b2b;stroke-width:8;stroke-linecap:round"/>
    <rect style="fill:#ffffff;fill-opacity:0.4409449" width="128" height="56" x="-515.5" y="46.35" rx="9.078" ry="9.078"/>
    <rect width="128" height="64" x="387.5" y="46.35" rx="15.38" ry="15.38" transform="scale(-1,1)" style="fill:none;stroke:#af0b2b;stroke-width:8;stroke-linecap:round"/>
    <rect width="128" height="56" x="-683.5" y="46.35" rx="9.078" ry="9.078" style="fill:#ffffff;fill-opacity:0.4409449"/>
    <rect style="fill:none;stroke:#af0b2b;stroke-width:8;stroke-linecap:round" width="128" height="64" x="555.5" y="46.35" rx="15.38" ry="15.38" transform="scale(-1,1)"/>
    <path style="fill:#af0b2b" d="m 26,12 c -1.063423,0 -2,0.827513 -2,2 l -1e-6,34 c 0,0 0,4 4,4 h 4 v -2 h -3.199218 c -0.469055,0 -0.785156,-0.316099 -0.785156,-0.785156 V 20.785156 C 28.015625,20.316099 28.331726,20 28.800781,20 H 32 l -1e-6,-6 c 0,-2 2,-2 2,-2 z m 5.999999,48 h -4 c 0,0 -4,0 -4,4 L 24,98 c 0,0.88001 0.905333,2 2,2 h 7.999998 c 0,0 -2.02022,-1.02e-4 -2,-2 l 10e-7,-6 H 28.785156 C 28.316101,92 28,91.683901 28,91.214844 V 62.785156 C 28,62.316099 28.318566,62.04802 28.785156,62 l 3.214843,-0.125 z" transform="matrix(0,-4,4,0,-759.5,210.34962)"/>
    <g style="enable-background:new" id="layer1-3" transform="matrix(0,-1.3114754,1.3114754,0,-779.62348,-443.10066)">
     <g style="display:none" id="layer2-6">
      <text id="context-7" x="7.91" y="145.35" xml:space="preserve" style="font-size:11.77367783px;line-height:125%;font-family:Cantarell">
       <tspan id="tspan2716-5" x="7.91" y="145.35">apps</tspan>
      </text>
      <text style="font-weight:bold;font-size:11.77367783px;line-height:125%;font-family:Cantarell" id="text3021-3" x="7.53" y="161.95" xml:space="preserve">
       <tspan id="tspan3023-5" x="7.53" y="161.95">org.gnome.Settings</tspan>
      </text>
      <rect width="128" height="128" x="0" y="172" style="fill:#f0f0f0"/>
      <g transform="matrix(0.25,0,0,0.25,-9.3066406e-6,224.99999)" style="enable-background:new">
       <rect style="opacity:0.1;fill:#2864b0" width="320" height="448" x="96" y="-180" rx="32" ry="32"/>
       <rect style="opacity:0.1;fill:#2864b0" width="416" height="416" x="48" y="-164" rx="32" ry="32"/>
       <rect style="opacity:0.1;fill:#2864b0" width="448" height="320" x="32" y="-116" rx="32" ry="32"/>
       <circle style="opacity:0.1;fill:#2864b0" cx="256" cy="44" r="240"/>
      </g>
     </g>
     <g id="layer9-9">
      <path style="fill:url(#linearGradient1419)" d="m -229.85615,189.49202 c -43.79618,0 -79.3,35.50383 -79.3,79.3 0.0287,6.31966 0.81255,12.61322 2.33515,18.74677 8.19243,-36.08816 40.25635,-61.71209 77.2627,-61.74464 36.54242,0.0403 68.32612,25.04657 76.96484,60.55324 1.33109,-5.7576 2.01443,-11.64593 2.03728,-17.55537 0,-43.79617 -35.5038,-79.3 -79.29997,-79.3 z m -85.10215,72.90214 v 42.7 c 0,47.16511 38.2349,85.4 85.4,85.4 47.16509,0 85.39999,-38.23489 85.39999,-85.4 v -42.7 c 0,21.81024 -8.18764,39.8757 -21.64189,53.00567 -14.89923,20.50946 -38.70592,32.65965 -64.05595,32.69219 -26.25567,-0.0305 -50.79408,-13.05488 -65.53331,-34.78311 -12.22092,-12.93048 -19.56884,-30.24417 -19.56884,-50.91475 z"/>
      <path d="m -229.08996,211.91663 a 76.249998,76.249998 0 0 0 -75.57052,66.63496 76.249998,76.249998 0 0 0 75.57052,66.80254 76.249998,76.249998 0 0 0 75.57052,-66.63494 76.249998,76.249998 0 0 0 -75.57052,-66.80256 z" style="fill:#3d3846"/>
      <g style="enable-background:new" transform="matrix(3.05,0,0,3.05,-412.08996,-396.10799)">
       <path style="opacity:0.2;fill:#ffffff" d="M 59.999998,199.35233 A 24.999999,24.999999 0 0 0 35.22278,221.19986 24.999999,24.999999 0 0 0 59.999998,243.10233 24.999999,24.999999 0 0 0 84.777216,221.25481 24.999999,24.999999 0 0 0 59.999998,199.35233 Z"/>
       <path d="M 59.999998,199.35233 A 24.999999,24.999999 0 0 0 35.22278,221.19986 24.999999,24.999999 0 0 0 59.999998,243.10233 24.999999,24.999999 0 0 0 84.777216,221.25481 24.999999,24.999999 0 0 0 59.999998,199.35233 Z" style="fill:url(#radialGradient1154-9)"/>
      </g>
      <path d="m -229.08996,192.85413 a 76.249998,76.249998 0 0 0 -76.25,76.25 76.249998,76.249998 0 0 0 0.67947,9.44746 76.249998,76.249998 0 0 1 75.57053,-66.63496 76.249998,76.249998 0 0 1 75.57052,66.80256 76.249998,76.249998 0 0 0 0.67948,-9.61506 76.249998,76.249998 0 0 0 -76.25,-76.25 z" style="opacity:0.1;fill:#453637"/>
      <circle style="fill:none;stroke:#f6f5f4;stroke-width:12.19999981;stroke-linecap:square;stroke-linejoin:round" cx="-229.856" cy="268.792" r="79.3"/>
     </g>
    </g>
   </g>
  </g>
 </g>
</svg>
